content/img/illus-ee-flavour.svg

<?xml version="1.0" encoding="UTF-8"?>
<svg width="90px" height="75px" viewBox="0 0 90 75" version="1.1" xmlns="http://www.w3.org/2000/svg" xmlns:xlink="http://www.w3.org/1999/xlink">
    <title>illus-ee-flavour</title>
    <g id="illus-ee-flavour" stroke="none" stroke-width="1" fill="none" fill-rule="evenodd">
        <path d="M42.1866754,60 C51.0056787,60 61.9471379,58.4379474 67.2923389,51.8766057 C71.7045455,46.4605335 77,30.2976552 77,22.5793679 C77,5.51070316 59.2864634,3.96807831 43.4032467,1.52188126 C34.2766716,0.116284309 22.0159908,-2.12661428 16.669049,4.57045022 C12.3700883,9.95491451 13.0374608,21.4870621 13.0374608,29.0941802 C13.0374608,46.162845 26.0880087,60 42.1866754,60 Z" id="Oval" fill="#5563B6"></path>
        <path d="M36.7053831,36.9995359 C38.4205736,36.9790794 41.1252968,36.6504205 43.0163602,36.19853 C43.563242,36.0680276 43.9969213,35.2910518 44,34.7659616 C44.0058929,33.7750556 43.412569,33.4457805 42.9064557,33.384781 C41.5431441,33.220513 36.7990593,33.8095604 36.7990593,33.8095604 L36.8625214,31.1708002 C36.8625214,31.1708002 39.8718889,31.0023425 41.1675173,30.7399822 C42.7610611,30.4173617 42.5326768,27.9009705 40.3410593,27.9179766 C39.2992791,27.9259868 36.9213654,28.0520528 36.9213654,28.0520528 L36.9986808,26.1383879 C36.9986808,26.1383879 41.4077757,26.3375302 42.5671126,26.0078855 C43.5991294,25.7144708 44.3341546,25.0602336 43.8123408,23.9920615 C43.3509547,23.047737 42.3246111,23.0673307 41.3520982,23.0965367 C40.2041081,23.1309183 37.3228519,22.8566046 35.5150413,23.1054094 C34.9124816,23.1883443 34.1985666,23.9575564 34.1748177,24.8554226 C34.1122791,27.2108731 34.0141174,31.6941652 34,32.7800828 C34.1105638,35.3770674 34.0150409,37.0318226 36.7053831,36.9995359 Z M47.7053831,36.9995359 C49.4205736,36.9790794 52.1252968,36.6504205 54.0163602,36.19853 C54.563242,36.0680276 54.9969213,35.2910518 55,34.7659616 C55.0058929,33.7750556 54.412569,33.4457805 53.9064557,33.384781 C52.5431441,33.220513 47.7990593,33.8095604 47.7990593,33.8095604 L47.8625214,31.1708002 C47.8625214,31.1708002 50.8718889,31.0023425 52.1675173,30.7399822 C53.7610611,30.4173617 53.5326768,27.9009705 51.3410593,27.9179766 C50.2992791,27.9259868 47.9213654,28.0520528 47.9213654,28.0520528 L47.9986808,26.1383879 C47.9986808,26.1383879 52.4077757,26.3375302 53.5671126,26.0078855 C54.5991294,25.7144708 55.3341546,25.0602336 54.8123408,23.9920615 C54.3509547,23.047737 53.3246111,23.0673307 52.3520982,23.0965367 C51.2041081,23.1309183 48.3228519,22.8566046 46.5150413,23.1054094 C45.9124816,23.1883443 45.1985666,23.9575564 45.1748177,24.8554226 C45.1122791,27.2108731 45.0141174,31.6941652 45,32.7800828 C45.1105638,35.3770674 45.0150409,37.0318226 47.7053831,36.9995359 Z" id="E" fill="#FFFFFF" fill-rule="nonzero"></path>
    </g>
</svg>

<svg width="90" height="75" xmlns="http://www.w3.org/2000/svg">
  <g fill="none" fill-rule="evenodd">
    <path d="M42.187 60c8.819 0 19.76-1.562 25.105-8.123C71.705 46.46 77 30.297 77 22.579 77 5.511 59.286 3.97 43.403 1.522 34.277.116 22.016-2.127 16.67 4.57c-4.299 5.385-3.632 16.917-3.632 24.524C13.037 46.163 26.088 60 42.187 60z" fill="#5563B6"/>
    <path d="M36.705 37c1.716-.02 4.42-.35 6.311-.801.547-.131.98-.908.984-1.433.006-.99-.587-1.32-1.094-1.381-1.363-.164-6.107.425-6.107.425l.064-2.64s3.009-.168 4.305-.43c1.593-.323 1.365-2.839-.827-2.822-1.042.008-3.42.134-3.42.134L37 26.138s4.409.2 5.568-.13c1.032-.294 1.767-.948 1.245-2.016-.461-.944-1.487-.925-2.46-.895-1.148.034-4.03-.24-5.837.008-.603.083-1.316.853-1.34 1.75-.063 2.356-.16 6.84-.175 7.925.11 2.597.015 4.252 2.705 4.22zm11 0c1.716-.02 4.42-.35 6.311-.801.547-.131.98-.908.984-1.433.006-.99-.587-1.32-1.094-1.381-1.363-.164-6.107.425-6.107.425l.064-2.64s3.009-.168 4.305-.43c1.593-.323 1.365-2.839-.827-2.822-1.042.008-3.42.134-3.42.134L48 26.138s4.409.2 5.568-.13c1.032-.294 1.767-.948 1.245-2.016-.461-.944-1.487-.925-2.46-.895-1.148.034-4.03-.24-5.837.008-.603.083-1.316.853-1.34 1.75-.063 2.356-.16 6.84-.175 7.925.11 2.597.015 4.252 2.705 4.22z" fill="#FFF" fill-rule="nonzero"/>
  </g>
</svg>
